!!!ONB: MCCC : IFC0120_01 : Extracted Monophonic Melody
!!!COM: Chopin, Frédéric
!!!OPR: Waltzes
!!!OMV: 1
!!!SCT: Op.69
!!!ODT: 1829///
**kern
*thru
*staff1
*Ipiano
*>A
*clefG2
*k[b-e-a-d-g-]
*D-:
*M3/4
*MM240
=1
4a-
8g
8a-
8cc
8b-
=2
8g
8a-
8b-
8a-
8cc
8b-
=3
8g
8a-
8cc
8b-
8g
8a-
=4
8cc
8b-
8g
8a-
8cc
8b-
=5
8g
8a-
8cc
8b-
8g
8a-
=6
8cc
8b-
8g
8a-
8cc
8b-
=7
8g
8a-
8cc
8b-
8g
8a-
=8
8b-
8cc
8dd-
8ee-
8ff
8gg-
=9
4.bb-
8aa-
8gg-
8ff
=10
8ff
8ee-
8ee-
8dd
4ee-
=11
4.bb-
8aa-
8gg-
8ff
=12
8ff
8ee-
8dd
8ee-
8ff
8b-
=13
8g
8a-
8cc
8b-
8g
8a-
=14
8cc
8b-
8g
8a-
8cc
8b-
=15
8g
8a-
8cc
8b-
8g
8a-
=16
8b-
8cc
8dd-
8ee-
8ff
8gg-
=17
4.bb-
8aa-
8gg-
8ff
=18
8ff
8ee-
8ee-
8dd
4ee-
=19
4.bb-
8aa-
8gg-
8ff
=20
8ee-
8ff
8ee-
8dd
8ee-
8ee
=21
*>B
12ff
12gg-
12ff
8ee
8ff
8aa-
8gg-
=22
8ff
8gg-
8ff
8ee
8ff
8bb-
=23
12aa-
12bb-
12aa-
8gg
8aa-
8ccc
8bb-
=24
8aa-
8bb-
8aa-
8gg
8aa-
8ddd-
=25
8ccc
8bb-
8aa-
8gg-
8ff
8ee-
=26
8dd-
8cc
8b-
8a-
8g-
8f
=27
8e-
8d-
8c
8e-
8b-
8a-
=28
8g
8a-
8b-
8cc
8dd-
8ee-
=29
12ff
12gg-
12ff
8ee
8ff
8aa-
8gg-
=30
8ff
8gg-
8ff
8ee
8ff
8bb-
=31
12aa-
12bb-
12aa-
8gg
8aa-
8ccc
8bb-
=32
8aa-
8bb-
8aa-
8gg
8aa-
8fff
=33
8eee-
8ddd-
8ccc
8bb-
8aa-
8gg-
=34
8ff
8ee-
8dd-
8cc
8b-
8a-
=35
8a
8cc
8b-
8f
8g-
8c
=36
*>B1
4d-
4r
4ff
=37
*>B
12ff
12gg-
12ff
8ee
8ff
8aa-
8gg-
=38
8ff
8gg-
8ff
8ee
8ff
8bb-
=39
12aa-
12bb-
12aa-
8gg
8aa-
8ccc
8bb-
=40
8aa-
8bb-
8aa-
8gg
8aa-
8ddd-
=41
8ccc
8bb-
8aa-
8gg-
8ff
8ee-
=42
8dd-
8cc
8b-
8a-
8g-
8f
=43
8e-
8d-
8c
8e-
8b-
8a-
=44
8g
8a-
8b-
8cc
8dd-
8ee-
=45
12ff
12gg-
12ff
8ee
8ff
8aa-
8gg-
=46
8ff
8gg-
8ff
8ee
8ff
8bb-
=47
12aa-
12bb-
12aa-
8gg
8aa-
8ccc
8bb-
=48
8aa-
8bb-
8aa-
8gg
8aa-
8fff
=49
8eee-
8ddd-
8ccc
8bb-
8aa-
8gg-
=50
8ff
8ee-
8dd-
8cc
8b-
8a-
=51
8a
8cc
8b-
8f
8g-
8c
=52
*>C
4d-
4r
[4a-
=53
2a-]
4e-
=54
2a-
4e
=55
2a-
4f
=56
2ff
[4ff
=57
2ff]
4b-
=58
2ff
4cc
=59
2ee-
4dd-
=60
8.cc
8.ee-
8.dd-
8.b-
=61
2a-
4e-
=62
2a-
4e
=63
2a-
4f
=64
2.ff
=65
4cc
4b
4cc
=66
4aa-
4b-
4gg
=67
4a
4gg-
4a-
=68
4ff
4f
4b-
=69
2a-
4e-
=70
2a-
4e
=71
2a-
4f
=72
2ff
4ff
=73
2ff
4b-
=74
2ff
4cc
=75
4ee-
4dd-
4cc
=76
4ee-
4.dd-
8b-
=77
2a-
4e-
=78
2a-
4e
=79
2a-
4f
=80
2.ff
=81
2ff
4b-
=82
2ee-
4b--
=83
4ee-
4a-
4dd
=84
4ff
4ee-
4aa-
=85
2.a-
=86
2.a-[
=87
2.a-]
=88
2.a-
=89
8g
8a-
8cc
8b-
8g
8a-
=90
8cc
8b-
8g
8a-
8cc
8b-
=91
8g
8a-
8cc
8b-
8g
8a-
=92
8cc
8b-
8g
8a-
8cc
8b-
=93
8g
8a-
8cc
8b-
8g
8a-
=94
8cc
8b-
8g
8a-
8cc
8b-
=95
8g
8a-
8cc
8b-
8g
8a-
=96
8b-
8cc
8dd-
8ee-
8ff
8gg-
=97
4.bb-
8aa-
8gg-
8ff
=98
8ff
8ee-
8ee-
8dd
4ee-
=99
4.bb-
8aa-
8gg-
8ff
=100
8ff
8ee-
8dd
8ee-
8ff
8b
=101
8g
8a-
8cc
8b-
8g
8a-
=102
8cc
8b-
8g
8a-
8cc
8b-
=103
8g
8a-
8cc
8b-
8g
8a-
=104
8b-
8cc
8dd-
8ee-
8ff
8gg-
=105
4.bb-
8aa-
8gg-
8ff
=106
8ff
8ee-
8ee-
8dd
4ee-
=107
4.bb-
8aa-
8gg-
8ff
=108
8ee-
8ff
8ee-
8dd
8ee-
8ee
=109
12ff
12gg-
12ff
8ee
8ff
8aa-
8gg-
=110
8ff
8gg-
8ff
8ee
8ff
8bb-
=111
12aa-
12bb-
12aa-
8gg
8aa-
8ccc
8bb-
=112
8aa-
8bb-
8aa-
8gg
8aa-
8ddd-
=113
8ccc
8bb-
8aa-
8gg-
8ff
8ee-
=114
8dd-
8cc
8b-
8a-
8g-
8f
=115
8e-
8d-
8c
8e-
8b-
8a-
=116
8g
8a-
8b-
8cc
8dd-
8ee-
=117
12ff
12gg-
12ff
8ee
8ff
8aa-
8gg-
=118
8ff
8gg-
8ff
8ee
8ff
8bb-
=119
12aa-
12bb-
12aa-
8gg
8aa-
8ccc
8bb-
=120
8aa-
8bb-
8aa-
8gg
8aa-
8fff
=121
8eee-
8ddd-
8ccc
8bb-
8aa-
8gg-
=122
8ff
8ee-
8dd-
8cc
8b-
8a-
=123
8a
8cc
8b-
8f
8g-
8c
=124
4d-
4r
4ff[
=125
12ff]
12gg-
12ff
8ee
8ff
8aa-
8gg-
=126
8ff
8gg-
8ff
8ee
8ff
8bb-
=127
12aa-
12bb-
12aa-
8gg
8aa-
8ccc
8bb-
=128
8aa-
8bb-
8aa-
8gg
8aa-
8ddd-
=129
8ccc
8bb-
8aa-
8gg-
8ff
8ee-
=130
8dd-
8cc
8b-
8a-
8g-
8f
=131
8e-
8d-
8c
8e-
8b-
8a-
=132
8g
8a-
8b-
8cc
8dd-
8ee-
=133
12ff
12gg-
12ff
8ee
8ff
8aa-
8gg-
=134
8ff
8gg-
8ff
8ee
8ff
8bb-
=135
12aa-
12bb-
12aa-
8gg
8aa-
8ccc
8bb-
=136
8aa-
8bb-
8aa-
8gg
8aa-
8fff
=137
16.eeee-
16.dddd-
16.cccc
16.bbb-
16.aaa-
16.ggg-
16.fff
16.eee-
=138
16.ddd-
16.ccc
16.bb-
16.aa-
16.gg-
16.ff
16.ee-
16.dd-
=139
16.cc
16.b-
16.a
16.cc
16.b-
16.f
16.g-
16.c
=140
2d-
4r
==
*-
